X: 1
T: The Easy Club
R: reel
M: 4/4
L: 1/8
K: Amaj
|: AEAc BFBd | ceef ecBA | fefg afec | dfec dcBc |
AEAc BFBd | ceef ecBA | fefg afed | cdBc A3z :||
|: ~f2af dfaf | ~e2ae ceae | ~f2af defg | afed cdBc |
AEAc BFBd | ceef ecBA | ~f3g afed | cdBc A3z :||


Tune 955	Setting 26344

